X:1
T:Building Day by Day
T:Building Day by Day
T:Herbert D. Lothrop
T:Frances Jane (Fanny) Crosby, 1891
T:Public Domain Courtesy of the Cyber Hymnal™
T:Public Domain Courtesy of the Cyber Hymnal™
C:Herbert D. Lothrop
Z:Public Domain
Z:Courtesy of the Cyber Hymnal™
%%score ( 1 2 ) ( 3 4 )
L:1/8
Q:1/4=107
M:4/4
K:Ab
V:1 treble 
V:2 treble 
V:3 bass 
V:4 bass 
V:1
 EA | [Ec]2 [Ec][Ec] [Ec]2 [DB][CA] | [DB]2 [FA][DF] [FA]2 ([EG][DF]) | [CE]2 [CA][CA] A2 Bc | %4
w: 1.~We are|build- ing in sor- row, and|build- ing in joy, A *|tem- ple the world can- not|
w: 2.~Ev- ery|deed forms a part in this|build- ing of ours, That~is *|done in the name of the|
w: 3.~Then be|watch- ful and wise, let the|tem- ple we rear Be *|one that no tem- pest can|
 [EGB]6 EA | [Ec]2 [Ec][Ec] [Ec]2 [DB][CA] | BB[FA][DF] [FA]2 [EG][DF] | EE[CA][DB] [Ec]2 [DB]2 | %8
w: see; But we|know it will stand if we|found it on a rock, Thro’ the|ag- es of e- ter- ni-|
w: Lord; For the|love that we show and the|kind- ness we be- stow, He has|prom- ised us a bright re-|
w: shock For the|Mas- ter has said, and He|taught us in His Word, We must|build up- on the sol- id|
 !fermata![CEA]6 ||"^Refrain" [CE][Ec] | [Ec][DB][DB][DB] [DB]2 [Ec][DB] | %11
w: ty.|We are|build- ing day by day As the|
w: ward.|||
w: rock.|||
 [DB][CA][CA][CA] [EA]3 [EG] | [DF][DF][DF][DG] [=DA]2 [DB][Dc] | [EB]6 EE | %14
w: mo- ments glide a- way, Our|tem- ple which the world may not|see; Ev- ery|
w: |||
w: |||
 [Ec][Ec][Ec][Ec] [Ec]2 [EB][EA] | [DB][DB][FA][DF] !fermata![FA]2 [=B,G][B,F] | %16
w: vic- tory won by grace Will be|sure to find its place, In our|
w: ||
w: ||
 [CE][CE]!fermata![CA][DB] [Ec]2 [DB]2 | A4- [CA]7 |] %18
w: build- ing for e- ter- ni-|ty. *|
w: ||
w: ||
V:2
 x2 | x8 | x8 | x4 =D4 | x8 | x8 | D2 x6 | C2 x6 | x6 || x2 | x8 | x8 | x8 | x6 EE | x8 | x8 | x8 | %17
 CCDD x7 |] %18
V:3
 z2 | A,,E,A,E, A,,E,A,E, | D,F,A,F, D,F, (A,F,) | A,,E,A,E, B,,F,A,F, | (E,G,B,E, [G,B,D]2) z2 | %5
w: |~ ~ ~ ~ ~ ~ ~ ~|~ ~ ~ ~ ~ ~ ~ *|~ ~ ~ ~ ~ ~ ~ ~|~ * * * *|
 A,,E,A,E, A,,E,A,E, | D,F,A,F, [D,A,]2 z2 | [E,A,][E,A,][F,A,][_F,A,] [E,A,]2 [E,G,]2 | %8
w: ~ ~ ~ ~ ~ ~ ~ ~|~ ~ ~ ~ ~|~ ~ ~ ~ ~ ~|
 (A,,E,A,E, !fermata!A,,2) || [A,,A,][A,,A,] | [E,A,][E,G,][E,G,][E,G,] [E,G,]2 [E,G,][E,G,] | %11
w: ~ * * * *|~ ~|~ ~ ~ ~ ~ ~ ~|
 [A,,E,][A,,E,][C,A,][E,A,] [A,C]3 [C,A,] | [D,A,][D,A,][D,A,][D,A,] [B,,A,]2 [B,,A,][B,,A,] | %13
w: ~ ~ ~ ~ ~ ~|~ ~ ~ ~ ~ which the|
 [E,G,]2 [E,G,][E,G,] G,2 [C,A,][B,,G,] | [A,,A,][A,,A,][C,A,][E,A,] [A,,A,]2 [B,,G,][C,_G,] | %15
w: world may not see; ~ ~|~ ~ ~ ~ ~ ~ ~|
 [D,F,][D,F,][D,A,][D,A,] !fermata![D,A,]2 [D,A,][D,A,] | [E,A,][E,A,] z4 [E,G,][E,G,] | %17
w: ~ ~ ~ ~ ~ ~ ~|~ ~ for e-|
 [A,,A,]2 (F,_F,) [A,,E,]7 |] %18
w: ter- ni- * ty.|
V:4
 x2 | x8 | x8 | x8 | x8 | x8 | x8 | x8 | x6 || x2 | x8 | x8 | x8 | x4 (E,D,) x2 | x8 | x8 | x8 | %17
 x2 A,,2 x7 |] %18

